X: 22331
T: La Valse Des Pastouriaux
R: waltz
M: 3/4
K: Gmajor
D2|GF GA Bc|d2 dc BG|c2 cB AG|AB cB AF|
GF GA Bc|d2 dc BG|c2 cB AG|A4:|
|:d2|ed e2 f2|g3 d BG|c3 B AG|AB AG FD|
ed e2 f2|g3 d BG|c2 cB AG|A4:|OxHG4||
P:Variations (basic)
D2|~G3A Bc|de dc BG|c2 cB AG|AB cA FA|
~G3A Bc|de dc BG|c2 cB AG|A4:|
|:d2|ed e2 f2|g3 d BG|cB AG FG|AB Ag fd|
ed e2 f2|g3 d BG|cB AG FG|A4:|

